static/logos/monday-glyph-color.svg

<svg width="50" height="31" viewBox="0 0 50 31" fill="none" xmlns="http://www.w3.org/2000/svg">
<g clip-path="url(#clip0_1_1953)">
<path d="M6.20656 30.2457C5.10363 30.2481 4.01981 29.9577 3.06585 29.4042C2.11189 28.8506 1.32197 28.0537 0.776795 27.0949C0.239963 26.143 -0.0277692 25.0628 0.00227754 23.9703C0.0323243 22.8778 0.359018 21.814 0.947365 20.8929L12.1291 3.33379C12.7014 2.3901 13.5139 1.61521 14.4837 1.08829C15.4535 0.561371 16.5457 0.301296 17.6488 0.334633C18.7512 0.361049 19.8267 0.679865 20.7654 1.25846C21.704 1.83704 22.4721 2.65463 22.991 3.62755C24.0333 5.59857 23.9031 7.96994 22.6546 9.82013L11.48 27.3792C10.9133 28.2622 10.1329 28.988 9.21102 29.489C8.28917 29.9901 7.25577 30.2504 6.20656 30.2457Z" fill="#F62B54"/>
<path d="M25.3827 30.2456C23.1275 30.2456 21.0522 29.0397 19.9625 27.1019C19.4268 26.1525 19.1597 25.0752 19.1898 23.9855C19.2198 22.8958 19.5459 21.8349 20.1331 20.9164L31.2934 3.3976C31.8573 2.44063 32.6669 1.65194 33.6383 1.11333C34.6098 0.574723 35.7076 0.305806 36.8179 0.334472C39.0922 0.384221 41.1532 1.65638 42.1956 3.64634C43.2309 5.63631 43.0792 8.02191 41.7929 9.86736L30.6348 27.3861C30.0699 28.2654 29.2927 28.9883 28.3747 29.488C27.4568 29.9877 26.4279 30.2483 25.3827 30.2456Z" fill="#FFCC00"/>
<path d="M44.1395 30.3923C47.3188 30.3923 49.8962 27.869 49.8962 24.7565C49.8962 21.6438 47.3188 19.1206 44.1395 19.1206C40.9602 19.1206 38.3828 21.6438 38.3828 24.7565C38.3828 27.869 40.9602 30.3923 44.1395 30.3923Z" fill="#00CA72"/>
</g>
<defs>
<clipPath id="clip0_1_1953">
<rect width="50" height="30.7692" fill="white"/>
</clipPath>
</defs>
</svg>

<svg xmlns="http://www.w3.org/2000/svg" width="103.226" height="64" fill="none" viewBox="0 0 50 31"><g clip-path="url(#a)"><path fill="#F62B54" d="M6.207 30.246a6.231 6.231 0 0 1-5.43-3.151 6.024 6.024 0 0 1 .17-6.202L12.13 3.333A6.235 6.235 0 0 1 17.65.336a6.224 6.224 0 0 1 5.342 3.293 6.019 6.019 0 0 1-.336 6.192L11.48 27.38a6.232 6.232 0 0 1-5.273 2.866Z"/><path fill="#FC0" d="M25.383 30.246c-2.255 0-4.33-1.206-5.42-3.144a6.004 6.004 0 0 1 .17-6.186l11.16-17.518A6.226 6.226 0 0 1 36.818.334a6.217 6.217 0 0 1 5.378 3.312 6.005 6.005 0 0 1-.403 6.221l-11.158 17.52a6.222 6.222 0 0 1-5.252 2.859Z"/><path fill="#00CA72" d="M44.14 30.392c3.179 0 5.756-2.523 5.756-5.636 0-3.112-2.577-5.635-5.757-5.635-3.179 0-5.756 2.523-5.756 5.636 0 3.112 2.577 5.635 5.756 5.635Z"/></g><defs><clipPath id="a"><path fill="#fff" d="M0 0h50v30.769H0z"/></clipPath></defs></svg>
